X: 8511
T: Creel Of Turf, The
R: jig
M: 6/8
K: Adorian
Aee edc|BGB dcB|Aee AeA|dcB A2 ^G|
Aee edc|BG/A/B def|gbg ege|dcB A2:|
eaa a^ga|b^ab ged|e2 a a^ga|bgf g2 a|
eaa a^ga|b^ab ged|GdB ecg|d>cB A2:|

